X:115
T:Hopsa
S:HO
R:Hopsa
O:Denmark
N:the slur ornament-marks represent trills.
M:2/4
K:D
A2 |\
fAfA fAfA | fAfA afdf | eAeA eAeA |eAeA ba^ga |\
fAfA fAfA | fAfA afdf | eAeA eAed |cABc d2A2\
|: f2~fe dfA[df] | egec dfag | \
f2~fe dfaf |1 eAce d2A2 :|2 d2zf/g/ ::\
abag [A2~f2]df | [A2~e2]ce  [A2~f2]df/g/ | \
abag [A2~f2]df |1 eAce  d2z:|2 d2z :|**
